picto/hand-towels-framed.svg

<svg class="color-immutable" width="30" height="30" viewBox="0 0 30 30" fill="none" xmlns="http://www.w3.org/2000/svg"><path d="M30.0022 0H0.00219727V30H30.0022V0Z" fill="#2D327D"/><path d="M25.5022 3C26.3272 3 27.0022 3.675 27.0022 4.5V25.5C27.0022 26.325 26.3272 27 25.5022 27H4.5022C3.6772 27 3.0022 26.325 3.0022 25.5V4.5C3.0022 3.675 3.6772 3 4.5022 3H25.5022ZM25.5022 2.625H4.5022C3.46832 2.625 2.6272 3.46613 2.6272 4.5V25.5C2.6272 26.5339 3.46832 27.375 4.5022 27.375H25.5022C26.5361 27.375 27.3772 26.5339 27.3772 25.5V4.5C27.3772 3.46613 26.5361 2.625 25.5022 2.625Z" fill="white"/><path d="M14.3689 15.5508C14.3542 15.5508 14.3394 15.5508 14.3239 15.5516C14.2684 15.5525 14.2141 15.5627 14.1636 15.5821C13.7668 15.7276 13.5034 16.1054 13.5034 16.5273V16.5458V18.7182C13.5034 18.9853 13.2861 19.2028 13.02 19.2028H11.7593C11.5624 19.2028 11.3734 19.1236 11.2345 18.9834L7.18071 14.9313C6.91229 14.6606 6.47586 14.6606 6.20661 14.9298C5.93736 15.1991 5.93736 15.6356 6.20661 15.9047L10.5171 20.2143L10.2805 20.4511L6.42876 16.5991L6.16439 16.8608C6.05391 16.9732 5.99129 17.1244 5.99129 17.2818C5.99129 17.4403 6.05391 17.5913 6.16439 17.7028L9.61094 21.1485L9.37341 21.3844L6.42869 18.4399L6.16431 18.7016C6.05384 18.8141 5.99121 18.965 5.99121 19.1225C5.99121 19.2811 6.05384 19.4321 6.16431 19.5437L8.68919 22.0679L8.45354 22.3046L6.42869 20.2806L6.16431 20.5422C6.05384 20.6546 5.99121 20.8058 5.99121 20.9633C5.99129 21.1217 6.05399 21.2729 6.16439 21.3844L8.78144 24H14.9913V16.1744C14.9912 15.8289 14.7114 15.5508 14.3689 15.5508Z" fill="white"/><path d="M21.2251 7.125H8.77515V10.425H21.2251V7.125Z" fill="white"/><path d="M6 6V8.24993L8.4 8.25V7.875H6.375V6.375H23.625V7.875H21.6V8.25L24 8.24993V6H6Z" fill="white"/><path d="M8.77515 14.1H19.2376V12.1125H21.2251V10.8H8.77515V14.1Z" fill="white"/><path d="M19.6125 14.1H19.6133L21.225 12.4882V12.4875H19.6125V14.1Z" fill="white"/></svg>

<svg class="color-immutable" width="30" height="30" viewBox="0 0 30 30" fill="none" xmlns="http://www.w3.org/2000/svg"><g clip-path="url(#a)"><path d="M30.002 0h-30v30h30V0Z" fill="#2D327D"/><path d="M25.502 3c.825 0 1.5.675 1.5 1.5v21c0 .825-.675 1.5-1.5 1.5h-21c-.825 0-1.5-.675-1.5-1.5v-21c0-.825.675-1.5 1.5-1.5h21Zm0-.375h-21A1.877 1.877 0 0 0 2.627 4.5v21c0 1.034.841 1.875 1.875 1.875h21a1.877 1.877 0 0 0 1.875-1.875v-21a1.877 1.877 0 0 0-1.875-1.875Z" fill="#fff"/><path d="M14.369 15.55c-.015 0-.03 0-.045.002a.468.468 0 0 0-.16.03c-.397.146-.66.523-.66.945V18.718a.485.485 0 0 1-.484.485h-1.26a.74.74 0 0 1-.525-.22L7.18 14.931a.69.69 0 1 0-.974.973l4.31 4.31-.236.237L6.428 16.6l-.265.262a.601.601 0 0 0 0 .842l3.447 3.445-.238.236L6.43 18.44l-.265.262a.601.601 0 0 0 0 .842l2.525 2.524-.235.237-2.025-2.024-.265.261a.601.601 0 0 0 0 .842L8.781 24h6.21v-7.826a.623.623 0 0 0-.622-.623ZM21.225 7.125H8.775v3.3h12.45v-3.3Z" fill="#fff"/><path d="M6 6v2.25h2.4v-.375H6.375v-1.5h17.25v1.5H21.6v.375H24V6H6ZM8.775 14.1h10.463v-1.987h1.987V10.8H8.775v3.3Z" fill="#fff"/><path d="m19.613 14.1 1.612-1.612h-1.613V14.1Z" fill="#fff"/></g><defs><clipPath id="a"><path fill="#fff" d="M0 0h30v30H0z"/></clipPath></defs></svg>
